korla/status/symbolic/orientation-landscape-inverse-symbolic.svg

<svg style="clip-rule:evenodd;fill-rule:evenodd;stroke-linejoin:round;stroke-miterlimit:2" version="1.1" viewBox="0 0 16 16" xmlns="http://www.w3.org/2000/svg">
 <path d="m2 3c-1 0-1 1-1 1v8c0 1 1 1 1 1h12c1 0 1-1 1-1v-8c0-1-1-1-1-1h-12z" style="fill-opacity:.3;fill:rgb(223,223,223)"/>
 <path d="m4 6h8l-4 4-4-4z" style="fill:rgb(223,223,223)"/>
</svg>

<svg xmlns="http://www.w3.org/2000/svg" width="16" height="16" version="1.1">
 <path style="fill:#dfdfdf" d="M 2,3 C 1,3 1,4 1,4 V 12 C 1,13 2,13 2,13 H 14 C 15,13 15,12 15,12 V 4 C 15,3 14,3 14,3 Z M 4,6 H 12 L 8,10 Z"/>
</svg>
